svgs/thin/person-dress.svg

<svg xmlns="http://www.w3.org/2000/svg" viewBox="0 0 320 512"><!--! Font Awesome Pro 6.0.0-alpha3 by @fontawesome - https://fontawesome.com License - https://fontawesome.com/license (Commercial License) --><path d="M315.1 271l-61.19-97.95C236.3 144.9 205.8 128 172.5 128H147.5c-33.28 0-63.72 16.86-81.41 45.13L4.873 271C-4.502 286 .0609 305.8 15.03 315.1c5.289 3.299 11.16 4.871 16.95 4.871c10.67 0 21.09-5.336 27.14-15.06l32.62-52.19L47.1 384h40v96c0 17.67 14.33 32 32 32s31.1-14.33 31.1-32v-96h16v96c0 17.67 14.33 32 32 32s32-14.33 32-32v-96h40l-43.76-131.3l32.63 52.22C266.9 314.7 277.4 320 288 320c5.781 0 11.66-1.562 16.94-4.859C319.9 305.8 324.5 286 315.1 271zM136 480c0 8.822-7.178 16-16 16s-16-7.178-16-16v-96h32V480zM216 480c0 8.822-7.178 16-16 16s-16-7.178-16-16v-96h32V480zM296.5 301.6c-2.549 1.59-5.496 2.431-8.486 2.431c-5.568 0-10.62-2.808-13.57-7.525l-36.38-55.26c-3.576-5.434-10.36-7.781-16.53-5.725c-7.49 2.496-11.56 10.57-9.107 18.07L249.8 368H70.2l37.37-114.4c2.451-7.504-1.617-15.58-9.105-18.07c-6.172-2.057-12.95 .291-16.53 5.725L45.54 296.5C42.61 301.2 37.54 304 31.98 304c-5.301 0-10.44-2.67-13.52-7.416c-3.455-5.332-2.982-12.34 .3848-17.72l60.78-97.26C94.36 158.1 119.7 144 147.5 144h25.06c27.74 0 53.1 14.05 67.84 37.57l61.19 97.96C306.2 287 303.1 296.9 296.5 301.6zM160 104c28.71 0 52-23.29 52-52c0-28.71-23.29-51.1-52-51.1c-28.71 0-51.1 23.29-51.1 51.1C108 80.71 131.3 104 160 104zM160 16c19.85 0 36 16.15 36 35.1c0 19.85-16.15 36-36 36s-36-16.15-36-36C124 32.15 140.2 16 160 16z"/></svg>

<svg xmlns="http://www.w3.org/2000/svg" viewBox="0 0 320 512"><!-- Font Awesome Pro 6.0.0-alpha2 by @fontawesome - https://fontawesome.com License - https://fontawesome.com/license (Commercial License) --><path d="M315.127 271.047L253.938 173.094C236.25 144.859 205.813 128 172.531 128H147.469C114.188 128 83.75 144.859 66.063 173.125L4.873 271.047C-4.502 286.031 0.061 305.766 15.03 315.141C20.319 318.439 26.188 320.012 31.983 320.012C42.655 320.012 53.069 314.676 59.123 304.953L91.744 252.768L47.998 384H88V480C88 497.672 102.326 512 120 512S152 497.672 152 480V384H168V480C168 497.672 182.326 512 200 512S232 497.672 232 480V384H272.002L228.244 252.732L260.877 304.953C266.94 314.672 277.377 320 288.033 320C293.815 320 299.69 318.438 304.971 315.141C319.94 305.766 324.502 286.031 315.127 271.047ZM136 480C136 488.822 128.822 496 120 496S104 488.822 104 480V384H136V480ZM216 480C216 488.822 208.822 496 200 496S184 488.822 184 480V384H216V480ZM296.498 301.568C293.949 303.158 291.024 304 288.033 304C282.465 304 277.389 301.191 274.446 296.475L238.067 241.213C234.49 235.779 227.707 233.432 221.537 235.488C214.047 237.984 209.981 246.059 212.43 253.562L249.803 368H70.199L107.571 253.562C110.022 246.059 105.953 237.984 98.465 235.488C92.293 233.432 85.512 235.779 81.936 241.213L45.543 296.494C42.612 301.201 37.541 304.012 31.983 304.012C26.682 304.012 21.541 301.342 18.465 296.596C15.01 291.264 15.483 284.26 18.85 278.873L79.627 181.611C94.364 158.061 119.727 144 147.469 144H172.531C200.272 144 225.635 158.051 240.369 181.57L301.563 279.533C306.239 287.006 303.957 296.896 296.498 301.568ZM160.002 104C188.711 104 212.002 80.707 212.002 51.998C212.002 23.293 188.711 0 160.002 0C131.295 0 108.002 23.293 108.002 51.998C108.002 80.707 131.295 104 160.002 104ZM160.002 16C179.852 16 196.002 32.148 196.002 51.998C196.002 71.85 179.852 88 160.002 88S124.002 71.85 124.002 51.998C124.002 32.148 140.153 16 160.002 16Z"/></svg>
